X: 20052
Q: "Moderate."
M: 2/4
L: 1/16
K: Bb
[|\
f2ga {g}f3a |{g}f3=e f2d2 | (3(c=Bc) (3(dc_B) A2G2 | F4 z4 |]
|:\
f2cc c2f2 | e4 d3f | f3c c2f2 | {f}e4 d4 |\


